icons/filled/camera.svg

<svg xmlns="http://www.w3.org/2000/svg" width="24" height="24" viewBox="0 0 24 24" fill="currentColor"><path d="M15 3a2 2 0 0 1 1.995 1.85l.005 .15a1 1 0 0 0 .883 .993l.117 .007h1a3 3 0 0 1 2.995 2.824l.005 .176v9a3 3 0 0 1 -2.824 2.995l-.176 .005h-14a3 3 0 0 1 -2.995 -2.824l-.005 -.176v-9a3 3 0 0 1 2.824 -2.995l.176 -.005h1a1 1 0 0 0 1 -1a2 2 0 0 1 1.85 -1.995l.15 -.005h6zm-3 7a3 3 0 0 0 -2.985 2.698l-.011 .152l-.004 .15l.004 .15a3 3 0 1 0 2.996 -3.15z"/></svg>

<svg xmlns="http://www.w3.org/2000/svg" width="24" height="24" fill="currentColor"><path d="M15 3a2 2 0 0 1 1.995 1.85L17 5a1 1 0 0 0 .883.993L18 6h1a3 3 0 0 1 2.995 2.824L22 9v9a3 3 0 0 1-2.824 2.995L19 21H5a3 3 0 0 1-2.995-2.824L2 18V9a3 3 0 0 1 2.824-2.995L5 6h1a1 1 0 0 0 1-1 2 2 0 0 1 1.85-1.995L9 3zm-3 7a3 3 0 0 0-2.985 2.698l-.011.152L9 13l.004.15A3 3 0 1 0 12 10"/></svg>
